azure-patterns/svg-log-analytics.svg

<svg xmlns="http://www.w3.org/2000/svg" viewBox="-1 -1 34 34"><path fill="#0072c6" fill-rule="evenodd" clip-rule="evenodd" d="M4 19h2v-2H4v2zm0-6h2v-1.8c-.7.4-1.4.8-2 1.3v.5zm3 12h2v-2H7v2zm0 6h2v-2H7v2zm0-9h2v-2H7v2zm0 6h2v-2H7v2zm-3-3h2v-2H4v2zm0 3h2v-2H4v2zm-3-6h2v-2H1v2zm0 3h2v-2H1v2zm0-6h2v-2H1v2zm.2-3H3v-2h-.5c-.5.6-.9 1.3-1.3 2zM4 29.5c.6.5 1.3.9 2 1.3V29H4v.5zM4 16h2v-2H4v2zm15 12h.5c.5-.6.9-1.3 1.3-2H19v2zm-3-3h2v-2h-2v2zm0 5.8c.7-.4 1.4-.8 2-1.3V29h-2v1.8zm0-2.8h2v-2h-2v2zm-9-9h2v-2H7v2zM20.5 1C14.7 1 10 5.7 10 11.5V22h10.5C26.3 22 31 17.3 31 11.5S26.3 1 20.5 1zM17 16h-2v-6h2v6zm4 0h-2v-4h2v4zm4 0h-2V8h2v8zm-6 9h2v-2h-2v2zM7 13h2v-2H7v2zm6 15h2v-2h-2v2zm-3 0h2v-2h-2v2zm0-3h2v-2h-2v2zm3 6h2v-2h-2v2z"/></svg>

<svg xmlns="http://www.w3.org/2000/svg" viewBox="-1 -1 34 34">
                                
                            
    <path fill="#0072c6" fill-rule="evenodd" clip-rule="evenodd" d="M4,19h2v-2l-2,0V19z M4,13h2v-1.8c-0.7,0.4-1.4,0.8-2,1.3V13z M7,25h2v-2l-2,0V25z M7,31h2v-2l-2,0V31z M7,22h2v-2l-2,0V22z M7,28h2v-2l-2,0V28z M4,25h2v-2l-2,0V25z M4,28h2v-2l-2,0V28z M1,22h2v-2l-2,0V22z M1,25h2v-2l-2,0V25z M1,19h2v-2l-2,0V19z M1.2,16H3v-2l-0.5,0C2,14.6,1.6,15.3,1.2,16z M4,29.5 c0.6,0.5,1.3,0.9,2,1.3V29l-2,0V29.5z M4,16h2v-2l-2,0V16z M19,28h0.5c0.5-0.6,0.9-1.3,1.3-2L19,26V28z M16,25h2v-2l-2,0V25z M16,30.8c0.7-0.4,1.4-0.8,2-1.3V29l-2,0V30.8z M16,28h2v-2l-2,0V28z M7,19h2v-2l-2,0V19z M20.5,1C14.7,1,10,5.7,10,11.5 c0,3.1,0,10.5,0,10.5s7.8,0,10.5,0C26.3,22,31,17.3,31,11.5S26.3,1,20.5,1z M17,16h-2v-6h2V16z M21,16h-2v-4h2V16z M25,16h-2V8h2 V16z M19,25h2v-2l-2,0V25z M7,13h2v-2l-2,0V13z M13,28h2v-2l-2,0V28z M10,28h2v-2l-2,0V28z M10,25h2v-2l-2,0V25z M13,31h2v-2l-2,0 V31z"></path>
</svg>
